X:767
T:Jack Coughlan's Fancy
R:reel
S:J\"orgen Fischer
Z:id:hn-reel-767
M:C|
K:G
c2BA ~G3B | AE~E2 GEDB | cABA ~G3B |1 dBAB BGGB :|2 dBAB BGGE ||
|: ~D3E ~G3A | AGBd edBd | dBde ~g3e |1 dBAB ~G3E :|2 dBAB ~G3B ||
P:variations
|: cABA ~G3B | AE~E2 GEDB | c2BA ~G3B |1 dBAc BG~G2 :|2 dBAc BAGE ||
|: DB,DE ~G3A | BG (3Bcd edBe | dBde gfge |1 dBAc BAGE :|2 dBAc BGGB ||

